X: 105
T:Bourree #1
M:2/4
L:1/8
Q:1/8=250
K:G
G2 Bd|g3 b|a>gfe|d>cBA|G2 Bd|g3 b|a>gfe|d4:||
B>dBd|c>ece|d2 g>a|b>agd|B>dBd|c>ece|d2 gf|g4:||
